X: 2
T: Staten Island
R: hornpipe
M: 4/4
L: 1/8
K: Dmaj
AF|:DEFG (3AAA FA|dfec dcBA|GABd AFDF|G2 E2 E2 AF||DE (3FFG ADFA|dfec dcBA|(3GGG Bd efge|1 eA (3cBA d2 AF:|2 eA (3cBA d2 (efg||:a2 fa g2 eg|fedf ecAB|=c2 c2 efge|=cBcd efge||(3aaa fa (3ggg eg|fedf ecAc|(3ddd fd efge|1eA (3cBA d2 (3efg:|eA (3cBA d2 AF|


Tune 1285	Setting 20762

